dist/img/icons/services/neurology.svg

<svg width="110" height="110" viewBox="0 0 110 110" fill="none" xmlns="http://www.w3.org/2000/svg">
<path d="M83.9916 34.9511C83.966 33.4549 83.8266 31.986 83.5817 30.5523C91.2435 35.8184 99.7932 33.045 102.739 25.4483C106.34 16.1617 97.8963 6.26314 87.6525 2.05885C78.6171 -1.64979 68.6461 -0.677402 63.3752 7.68863C60.7212 6.88619 57.9084 6.45263 54.996 6.45263C52.0836 6.45263 49.2709 6.88597 46.6169 7.68863C41.3465 -0.677187 31.3756 -1.65 22.3399 2.05885C12.0962 6.26335 3.65257 16.1617 7.25357 25.4485C10.1926 33.0282 18.731 35.8304 26.4108 30.5523C26.1657 31.986 26.0264 33.4549 26.0007 34.9513C16.3632 36.9358 0 41.7367 0 51.5669C0 53.6863 0.795138 55.6146 2.08914 57.3041L2.09366 57.3099L2.09473 57.3112L25.9944 88.5347V100.333C25.9944 101.501 26.6263 102.577 27.6457 103.146C28.1469 103.426 40.0912 110 54.9962 110C69.9013 110 81.8455 103.426 82.3468 103.146C83.3664 102.577 83.998 101.5 83.998 100.333V88.5347C84.0307 88.492 107.898 57.3101 107.898 57.3101C109.187 55.6532 109.992 53.676 109.992 51.5665C109.992 41.7401 93.6407 36.9382 83.9916 34.9511ZM85.205 8.02099C92.4354 10.9886 98.7851 17.8168 96.7297 23.1185C94.9519 27.7037 89.7297 28.3274 85.0005 23.3087L84.9537 23.259C82.0021 20.127 78.3644 16.268 75.0661 14.5389C73.3646 12.9055 71.4649 11.4761 69.4069 10.2928C74.1062 4.15573 82.5062 6.91326 85.205 8.02099ZM54.996 12.8977C67.4342 12.8977 77.5529 23.0167 77.5529 35.4547V48.3445C77.5529 54.0501 75.452 59.4248 71.6153 63.596C67.4611 64.044 62.9794 64.334 58.2183 64.4251V56.1242L63.7191 50.6233C64.6408 49.7016 64.9165 48.3157 64.4178 47.1115C63.9189 45.9073 62.7442 45.1222 61.4407 45.1222H48.5509C47.2475 45.1222 46.0725 45.9075 45.5738 47.1115C45.0752 48.3157 45.3508 49.7016 46.2725 50.6233L51.7736 56.124V64.4249C46.9787 64.3332 42.4562 64.0358 38.3765 63.5958C34.5399 59.4246 32.4389 54.0499 32.4389 48.3442V35.4544C32.4391 23.0167 42.558 12.8977 54.996 12.8977ZM25.0367 23.2612L24.9915 23.3089C20.263 28.327 15.0408 27.7048 13.2623 23.1185C11.1805 17.7494 17.689 10.9343 24.7868 8.02099C27.4861 6.91304 35.8861 4.15552 40.5851 10.293C38.5271 11.4763 36.6275 12.9055 34.9259 14.5392C31.627 16.2686 27.9884 20.1283 25.0367 23.2612ZM6.69497 52.5715C6.52654 52.2172 6.44468 51.8885 6.44468 51.5667C6.44468 49.2268 11.8304 44.6481 25.994 41.5384V48.3442C25.994 53.3207 27.2388 58.101 29.5782 62.3357C23.7117 61.2703 9.21703 57.8721 6.69497 52.5715ZM16.7132 65.8063C23.2178 67.9217 31.3032 69.4632 40.3383 70.2674L43.4499 89.2499C37.3889 87.8094 32.8613 85.6837 31.3417 84.918L16.7132 65.8063ZM77.5532 98.3426C74.0218 99.9943 65.2215 103.555 54.9962 103.555C44.8195 103.555 35.9819 99.988 32.4393 98.3383V92.4872C37.3543 94.4895 45.5852 97.1104 54.9962 97.1104C64.4073 97.1104 72.638 94.4895 77.5532 92.4872V98.3426ZM78.6484 84.9208C76.2701 86.1261 66.5422 90.666 54.9962 90.666C53.3471 90.666 51.7328 90.5723 50.1706 90.4081L46.9424 70.7145C49.5699 70.8378 52.2589 70.9016 54.996 70.9016C69.9215 70.9016 83.4175 69.0137 93.2787 65.8068L78.6484 84.9208ZM102.789 53.381C100.222 56.7204 92.2277 60.1897 80.4138 62.336C82.7532 58.1009 83.998 53.3209 83.998 48.3445V41.5386C98.1619 44.6483 103.547 49.2268 103.547 51.5669C103.547 52.0015 103.394 52.5947 102.789 53.381Z" fill="#FFC59E"/>
</svg>

<svg width="110" height="110" fill="none" xmlns="http://www.w3.org/2000/svg"><path d="M83.992 34.951a29.065 29.065 0 00-.41-4.399c7.662 5.266 16.211 2.493 19.157-5.104 3.601-9.286-4.843-19.185-15.087-23.39-9.035-3.708-19.006-2.735-24.277 5.63a28.908 28.908 0 00-8.379-1.235 28.9 28.9 0 00-8.38 1.236c-5.27-8.366-15.24-9.339-24.276-5.63C12.096 6.263 3.653 16.162 7.254 25.449c2.939 7.58 11.477 10.381 19.157 5.103a29.052 29.052 0 00-.41 4.4C16.363 36.935 0 41.736 0 51.566c0 2.12.795 4.048 2.09 5.737l.004.006v.001l23.9 31.224v11.798a3.22 3.22 0 001.652 2.813c.5.28 12.445 6.854 27.35 6.854 14.905 0 26.85-6.574 27.35-6.854a3.222 3.222 0 001.652-2.813V88.535l23.9-31.225c1.289-1.657 2.094-3.634 2.094-5.744 0-9.826-16.351-14.628-26-16.615zm1.213-26.93c7.23 2.968 13.58 9.796 11.525 15.098-1.778 4.585-7 5.208-11.73.19l-.046-.05c-2.952-3.132-6.59-6.991-9.888-8.72a29.177 29.177 0 00-5.66-4.246c4.7-6.137 13.1-3.38 15.799-2.272zm-30.209 4.877c12.438 0 22.557 10.119 22.557 22.557v12.89c0 5.705-2.101 11.08-5.938 15.251-4.154.448-8.636.738-13.397.83v-8.302l5.501-5.5a3.223 3.223 0 00-2.278-5.502H48.55a3.223 3.223 0 00-2.279 5.501l5.502 5.501v8.3a152.51 152.51 0 01-13.398-.828c-3.836-4.171-5.937-9.546-5.937-15.252v-12.89c0-12.437 10.119-22.556 22.557-22.556zM25.036 23.26l-.045.048c-4.728 5.018-9.95 4.396-11.729-.19-2.082-5.37 4.427-12.185 11.525-15.098 2.7-1.108 11.1-3.865 15.798 2.272a29.168 29.168 0 00-5.66 4.246c-3.298 1.73-6.937 5.59-9.888 8.722zM6.696 52.571c-.168-.354-.25-.682-.25-1.004 0-2.34 5.385-6.919 19.549-10.029v6.806c0 4.977 1.245 9.757 3.584 13.992-5.866-1.066-20.361-4.464-22.883-9.764zm10.018 13.235c6.505 2.116 14.59 3.657 23.625 4.461L43.45 89.25c-6.061-1.44-10.589-3.566-12.108-4.332L16.713 65.806zm60.84 32.537c-3.531 1.651-12.331 5.212-22.557 5.212-10.177 0-19.014-3.567-22.557-5.217v-5.85c4.915 2.002 13.146 4.622 22.557 4.622 9.411 0 17.642-2.62 22.557-4.623v5.856zm1.095-13.422c-2.378 1.205-12.106 5.745-23.652 5.745-1.649 0-3.263-.094-4.825-.258l-3.229-19.694c2.628.124 5.317.188 8.054.188 14.925 0 28.422-1.888 38.283-5.095L78.649 84.92zm24.141-31.54c-2.567 3.34-10.561 6.809-22.375 8.955 2.34-4.235 3.584-9.015 3.584-13.992V41.54c14.164 3.11 19.549 7.688 19.549 10.028 0 .434-.153 1.028-.758 1.814z" fill="#FFC59E"/></svg>
